modules/map-icons/icons/department-store.svg

<svg version="1.2" baseProfile="tiny" xmlns="http://www.w3.org/2000/svg" width="50" height="50" viewBox="0 0 50 50" overflow="inherit"><path d="M34 11v-3.036c0-2.481-2.109-4.964-4.589-4.964h-8.343c-2.479 0-5.068 2.483-5.068 4.964v3.036h-5.312l-5.688 35h40.187l-5.778-35h-5.409zm-15-3.036c0-.929 1.14-1.964 2.068-1.964h8.343c.927 0 1.589 1.035 1.589 1.964v3.036h-12v-3.036z"/></svg>

<svg version="1.2" baseProfile="tiny" xmlns="http://www.w3.org/2000/svg" width="50" height="50" overflow="inherit"><path d="M34 11V7.964C34 5.483 31.891 3 29.411 3h-8.343C18.589 3 16 5.483 16 7.964V11h-5.312L5 46h40.187l-5.778-35H34zM19 7.964C19 7.035 20.14 6 21.068 6h8.343C30.338 6 31 7.035 31 7.964V11H19V7.964z"/></svg>
